src/static/logos/campfire.svg

<svg width="256" height="214" xmlns="http://www.w3.org/2000/svg" preserveAspectRatio="xMidYMid"><defs><radialGradient cx="50%" cy="50.014%" fx="50%" fy="50.014%" r="46.025%" id="a"><stop stop-color="#FFF" offset="0%"/><stop stop-color="#99D9E8" offset="100%"/></radialGradient><radialGradient cx="48.72%" cy="-9.043%" fx="48.72%" fy="-9.043%" r="53.973%" id="b"><stop stop-color="#CCEBB9" offset="0%"/><stop stop-color="#66BB50" offset="100%"/></radialGradient></defs><path d="M128 0C59.1 0 5.1 87.7 0 161.7c21.6 37.5 73.8 51.6 128 51.6s106.4-14.1 128-51.6C250.9 87.7 196.9 0 128 0z" fill="url(#a)"/><path d="M236 157.2c.1 12-12.3 21.4-32.4 29.7-20.1 8-48 14.9-78.6 14.7-30.6.2-58.5-6.7-78.6-14.7-20.1-8.3-32.4-17.8-32.4-29.7.1-11.8 11.9-27.1 31.8-41.2 19.8-13.9 47.7-26.5 79.1-26.2 31.4-.4 59.3 12.3 79.1 26.2 20.1 14.1 31.8 29.5 32 41.2z" fill="url(#b)"/><path d="M172.5 151.7c0 12.3-21.2 22.3-47.4 22.3s-47.4-10-47.4-22.3 21.2-22.3 47.4-22.3 47.4 10 47.4 22.3z" opacity=".64" fill="#695114"/><path d="M118 54.3C122 70 105.3 77.2 96.6 89c-15.1 19-25.4 57.5.8 73.2 1 .6 2 1.1 3.1 1.6 15.1 6.8 36.7 4.9 51.3-2.2 6.5-3.2 12.7-8.1 14-15.1 2-10.4-10.6-14.3-10.1-24.6.3-4.5 1.6-7.9 4-11.8 3.5-5.9 5.1-18-4.7-18.8.5 4.2-6.4 16.8-12.5 11.7-3.7-3 .6-9.8 1.4-13.2 4.2-19.2-4.5-45-28.1-49.8" fill="#FF7F00"/><path d="M139.9 137.6c.6 2.7.5 5.7 0 8.5-.4 2.6-1.4 5.2-2.9 7.5-.8 1.2-1.7 2.2-2.8 3.2-.5.4-1 .9-1.6 1.2-.6.3-1.3.3-2 .5-1.2.3-2.3.5-3.5.5-1.3.1-2.6-.1-3.8-.2h-.8c-2.6 0-5.2-1.3-7.4-2.4-2.5-1.3-4.7-2.9-6.6-4.8-8.5-8.6-9.5-20-4.3-30.2 4.5-8.8 13.5-15.2 18-23.9.7-1.4 1.7-3.4 1.8-5 .2-2.1.4-4.4-.5-6.3.1.2 1.7.7 2 .9.5.4.9 1 1.2 1.6.6 1.3.6 2.8.4 4.1-.2 1.5-.6 3-1.3 4.4-.9 1.8-1.1 3.8-2 5.6-.7 1.6-1.3 3.3-2.3 4.8-1.1 1.5-2.1 3.1-2.5 4.9-.6 2.4-1 4.9-1.1 7.3-.1 3.2 2 6.3 3.6 9.1 1.9 3.3 4.7 4.9 8.7 3.7 5.1-1.6 9.2-7.5 11.2-11.8-3.9 8.3-3.1 9-1.5 16.8z" fill="#FF0"/><path d="M121.7 151.9c-3.6-.3-6.4-2.4-7.4-5.6-1-3.2-2.1-8.1-1.2-11.2.3-1.2 1-2.3 1.3-3.6.3-1.4.1-3.3 1.3-4.3.5-.4.7 3.3.7 3.5 0 .6-.3 1.6-.1 2.2.5 1 1 .3 1.4.6 1.5 1.3 2.2 4.6 3.2 6.5 2.9 5.5 7.3 7.4 12.3 2.4-1.2 3-4.3 6-7.9 7.5" opacity=".75" fill="#FFF"/><path d="M224.6 134.6c-12.7-4.2-20.8 32.4-42.3 45.6-20.1 12.3-47.2 16-61.3 20.6 34.7 1.3 64.1-6.6 88-16.4 18.8-7.8 40.7-24.7 15.6-49.8M31.2 177.3c-20.4-13.4 22.5-57.9 30.3-69.8-9.9 1.5-32.7 21.7-38.7 30.4-10.6 15.5-14 27.5 6.8 40.1" opacity=".15" fill="#695114"/></svg>

<?xml version="1.0" encoding="UTF-8" standalone="no"?>
<svg width="256px" height="214px" viewBox="0 0 256 214" version="1.1" xmlns="http://www.w3.org/2000/svg" xmlns:xlink="http://www.w3.org/1999/xlink" preserveAspectRatio="xMidYMid">
    <defs>
        <radialGradient cx="50%" cy="50.0142053%" fx="50%" fy="50.0142053%" r="46.0247656%" id="radialGradient-1">
            <stop stop-color="#FFFFFF" offset="0%"></stop>
            <stop stop-color="#99D9E8" offset="100%"></stop>
        </radialGradient>
        <radialGradient cx="48.7197277%" cy="-9.04308929%" fx="48.7197277%" fy="-9.04308929%" r="53.9734126%" id="radialGradient-2">
            <stop stop-color="#CCEBB9" offset="0%"></stop>
            <stop stop-color="#66BB50" offset="100%"></stop>
        </radialGradient>
    </defs>
	<g>
		<path d="M128,0 C59.1,0 5.1,87.7 0,161.7 C21.6,199.2 73.8,213.3 128,213.3 C182.2,213.3 234.4,199.2 256,161.7 C250.9,87.7 196.9,0 128,0 L128,0 Z" fill="url(#radialGradient-1)"></path>
		<path d="M236,157.2 C236.1,169.2 223.7,178.6 203.6,186.9 C183.5,194.9 155.6,201.8 125,201.6 C94.4,201.8 66.5,194.9 46.4,186.9 C26.3,178.6 14,169.1 14,157.2 C14.1,145.4 25.9,130.1 45.8,116 C65.6,102.1 93.5,89.5 124.9,89.8 C156.3,89.4 184.2,102.1 204,116 C224.1,130.1 235.8,145.5 236,157.2 L236,157.2 Z" fill="url(#radialGradient-2)"></path>
		<path d="M172.5,151.7 C172.5,164 151.3,174 125.1,174 C98.9,174 77.7,164 77.7,151.7 C77.7,139.4 98.9,129.4 125.1,129.4 C151.3,129.4 172.5,139.4 172.5,151.7 L172.5,151.7 Z" opacity="0.64" fill="#695114"></path>
		<path d="M118,54.3 C122,70 105.3,77.2 96.6,89 C81.5,108 71.2,146.5 97.4,162.2 C98.4,162.8 99.4,163.3 100.5,163.8 C115.6,170.6 137.2,168.7 151.8,161.6 C158.3,158.4 164.5,153.5 165.8,146.5 C167.8,136.1 155.2,132.2 155.7,121.9 C156,117.4 157.3,114 159.7,110.1 C163.2,104.2 164.8,92.1 155,91.3 C155.5,95.5 148.6,108.1 142.5,103 C138.8,100 143.1,93.2 143.9,89.8 C148.1,70.6 139.4,44.8 115.8,40" fill="#FF7F00"></path>
		<path d="M139.9,137.6 C140.5,140.3 140.4,143.3 139.9,146.1 C139.5,148.7 138.5,151.3 137,153.6 C136.2,154.8 135.3,155.8 134.2,156.8 C133.7,157.2 133.2,157.7 132.6,158 C132,158.3 131.3,158.3 130.6,158.5 C129.4,158.8 128.3,159 127.1,159 C125.8,159.1 124.5,158.9 123.3,158.8 L122.5,158.8 C119.9,158.8 117.3,157.5 115.1,156.4 C112.6,155.1 110.4,153.5 108.5,151.6 C100,143 99,131.6 104.2,121.4 C108.7,112.6 117.7,106.2 122.2,97.5 C122.9,96.1 123.9,94.1 124,92.5 C124.2,90.4 124.4,88.1 123.5,86.2 C123.6,86.4 125.2,86.9 125.5,87.1 C126,87.5 126.4,88.1 126.7,88.7 C127.3,90 127.3,91.5 127.1,92.8 C126.9,94.3 126.5,95.8 125.8,97.2 C124.9,99 124.7,101 123.8,102.8 C123.1,104.4 122.5,106.1 121.5,107.6 C120.4,109.1 119.4,110.7 119,112.5 C118.4,114.9 118,117.4 117.9,119.8 C117.8,123 119.9,126.1 121.5,128.9 C123.4,132.2 126.2,133.8 130.2,132.6 C135.3,131 139.4,125.1 141.4,120.8 C137.5,129.1 138.3,129.8 139.9,137.6 L139.9,137.6 Z" fill="#FFFF00"></path>
		<path d="M121.7,151.9 C118.1,151.6 115.3,149.5 114.3,146.3 C113.3,143.1 112.2,138.2 113.1,135.1 C113.4,133.9 114.1,132.8 114.4,131.5 C114.7,130.1 114.5,128.2 115.7,127.2 C116.2,126.8 116.4,130.5 116.4,130.7 C116.4,131.3 116.1,132.3 116.3,132.9 C116.8,133.9 117.3,133.2 117.7,133.5 C119.2,134.8 119.9,138.1 120.9,140 C123.8,145.5 128.2,147.4 133.2,142.4 C132,145.4 128.9,148.4 125.3,149.9" opacity="0.75" fill="#FFFFFF"></path>
		<path d="M224.6,134.6 C211.9,130.4 203.8,167 182.3,180.2 C162.2,192.5 135.1,196.2 121,200.8 C155.7,202.1 185.1,194.2 209,184.4 C227.8,176.6 249.7,159.7 224.6,134.6" opacity="0.15" fill="#695114"></path>
		<path d="M31.2,177.3 C10.8,163.9 53.7,119.4 61.5,107.5 C51.6,109 28.8,129.2 22.8,137.9 C12.2,153.4 8.8,165.4 29.6,178" opacity="0.15" fill="#695114"></path>
	</g>
</svg>
